img/product-flower-5.svg

<svg width="150" height="152" viewBox="0 0 150 152" fill="none" xmlns="http://www.w3.org/2000/svg">
<path d="M129.89 43.4667L132.512 46.7171L133.655 50.4901L133.376 54.0698L131.618 58.1722L126.463 64.3455L119.941 69.6096L109.367 76.132L97.3696 82.4611L108.592 81.4533L116.857 81.4908L125.067 82.2442L131.086 83.4237L138.088 85.8221L143.228 89.0527L145.251 90.7745L147.873 94.0249L150 99.0168L149.937 104.435L148.946 107.918L145.326 112.853L139.627 116.781L132.233 119.395L124.24 120.479L115.591 120.752L109.516 120.288L104.209 119.205L97.1502 117.523L86.7024 113.209L79.8116 109.379L77.789 107.657L77.5097 111.237L77.3348 118.087L76.832 124.53L74.7947 132.213L71.7182 139.392L67.6583 145.352L61.52 150.306L57.1398 151.158L53.2549 150.269L50.5209 148.45L47.5709 144.794L44.7326 139.705L42.5573 130.727L42.8439 122.446L44.0581 116.099L46.8069 108.513L49.388 103.076L43.704 97.6004L34.5114 95.628L24.3355 92.4368L16.6774 89.2258L10.8258 85.8985L7.10854 82.8612L2.84739 77.5793L0.776386 71.8714L1.05569 68.2917L2.04643 64.8086L2.86957 63.4734L6.70598 60.3768L11.5257 58.4992L18.4239 57.6275L28.3838 58.9805L36.4255 61.8818L44.7391 65.9054L52.2855 70.5482L50.9891 59.519L51.4434 49.0895L51.8903 43.3619L54.0952 33.5319L57.2835 24.9208L61.5668 16.0967L65.243 10.4461L69.5748 5.60802L74.8899 1.98885L80.3652 0.923828L85.673 2.00664L88.7347 4.23142L92.0125 8.29438L94.4113 14.4085L95.0595 19.9231L94.3333 29.2304L92.2401 37.6285L89.4913 45.214L86.4148 52.3932L81.0364 61.4303L83.6661 59.9787L95.8309 51.5018L106.733 45.3857L114.894 42.1531L120.369 41.0881L126.444 41.5516L129.89 43.4667Z" fill="white"/>
<path d="M76.3428 77.6003L79.6296 81.6735L80.9932 87.2985L79.8882 92.2255L78.2378 94.9024L75.1607 97.3854L69.9996 98.8599L64.6777 97.7741L62.265 96.3582L58.5936 92.5955L56.8453 87.2808L57.6217 81.9466L59.7127 78.2416L62.4052 76.0689L66.8529 74.4974L70.8041 74.6717L74.6434 76.2814L76.3428 77.6003Z" fill="#F0C85F"/>
</svg>

<svg width="150" height="152" fill="none" xmlns="http://www.w3.org/2000/svg"><path d="M129.89 43.467l2.622 3.25 1.143 3.773-.279 3.58-1.758 4.102-5.155 6.174-6.522 5.264-10.574 6.522-11.997 6.33 11.222-1.009 8.265.038 8.21.753 6.019 1.18 7.002 2.398 5.14 3.23 2.023 1.722 2.622 3.25L150 99.018l-.063 5.418-.991 3.483-3.62 4.935-5.699 3.928-7.394 2.614-7.993 1.084-8.649.273-6.075-.464-5.307-1.083-7.059-1.682-10.448-4.314-6.89-3.83-2.023-1.722-.28 3.58-.174 6.85-.503 6.443-2.037 7.683-3.077 7.179-4.06 5.96-6.138 4.954-4.38.852-3.885-.889-2.734-1.819-2.95-3.656-2.838-5.089-2.176-8.978.287-8.281 1.214-6.347 2.749-7.586 2.581-5.437-5.684-5.476-9.193-1.972-10.176-3.191-7.658-3.211-5.851-3.328-3.717-3.037-4.262-5.282-2.07-5.708.279-3.58.99-3.482.824-1.336 3.836-3.096 4.82-1.878 6.898-.872 9.96 1.353 8.041 2.902 8.314 4.023 7.547 4.643-1.297-11.029.454-10.43.447-5.727 2.205-9.83 3.188-8.611 4.284-8.824 3.676-5.65 4.332-4.839 5.315-3.62L80.365.925l5.308 1.083 3.062 2.224 3.278 4.063 2.398 6.114.648 5.515-.726 9.307-2.093 8.399-2.749 7.585-3.076 7.18-5.379 9.036 2.63-1.451 12.165-8.477 10.902-6.116 8.161-3.233 5.475-1.065 6.075.464 3.446 1.915z" fill="#fff"/><path d="M76.343 77.6l3.287 4.074 1.363 5.624-1.105 4.927-1.65 2.677-3.077 2.483L70 98.86l-5.322-1.086-2.413-1.416-3.671-3.763-1.749-5.314.777-5.334 2.09-3.705 2.693-2.173 4.448-1.572 3.951.175 3.84 1.61 1.699 1.318z" fill="#F0C85F"/></svg>
